assets/images/svg/meal_hot_24.svg

<svg width="24" height="24" viewBox="0 0 24 24" fill="none" xmlns="http://www.w3.org/2000/svg">
<path d="M15.2617 17.5156L20.4675 17.5156C21.2292 17.5156 22 15.7755 22 15.2707L22 13.7656L3.25 13.7656L3.25002 15.0786C3.25002 15.6555 3.84427 17.5156 4.66459 17.5156L11.1602 17.5156M14.0312 17.5156L12.5664 17.5156" stroke="white" stroke-width="0.4"/>
<path d="M7 17.7106L7 19.2953C7 19.7755 7.16423 20.0156 7.57482 20.0156L17.7162 20.0156C18.1268 20.0156 18.25 19.7755 18.25 19.4154L18.25 17.5156" stroke="white" stroke-width="0.4"/>
<path d="M2 10.0156L8.25 12.5156" stroke="#FFFCFC" stroke-width="0.4" stroke-linecap="round"/>
<path d="M7 10.724C7.78206 10.5246 8.00095 10.7055 8.14394 11.0974C8.16389 11.152 8.38843 11.1818 8.43589 11.1481C8.70593 10.9567 9.2064 10.9299 9.5 11.4478C8.89076 10.0695 10.6571 8.83981 11.9043 10.5189C11.9338 10.5586 12.0188 10.54 12.0445 10.4977C12.3286 10.0316 13.875 10.0837 13.875 10.6513V10.6513C14.5 8.14032 17 8.78003 17 10.6584V10.6566V10.6566V10.6566C16.7913 9.79845 18.8174 9.40172 18.8738 10.6693C18.8751 10.6982 18.9004 10.7222 18.9293 10.7209C19.9452 10.6725 20.098 11.2273 20.1209 11.6204C20.1239 11.6717 20.1983 11.6918 20.2309 11.6521C20.6092 11.1913 20.974 11.8194 21.375 12.5335" stroke="#FFFCFC" stroke-width="0.4" stroke-linecap="round"/>
<path d="M16.4097 7.9648C18.5055 6.09515 14.9139 6.28804 17.0325 4.02184" stroke="#FFFCFC" stroke-width="0.4" stroke-linecap="round"/>
<path d="M13.2324 7.16366C15.2183 5.17764 11.6435 5.57484 13.6296 3.19161C13.9606 2.79441 13.6296 2.15561 13.0064 2" stroke="#FFFCFC" stroke-width="0.4" stroke-linecap="round"/>
<path d="M10.2261 7.95837C12.212 5.97235 8.63718 6.36955 10.6233 3.98633" stroke="#FFFCFC" stroke-width="0.4" stroke-linecap="round"/>
</svg>

<svg xmlns="http://www.w3.org/2000/svg" width="24" height="24" fill="none">
    <path stroke="#fff" stroke-width=".4"
        d="M15.26 17.52h5.2c.77 0 1.54-1.74 1.54-2.25v-1.5H3.25v1.3c0 .59.6 2.45 1.41 2.45h6.5m2.87 0h-1.46M7 17.71v1.59c0 .48.16.72.57.72h10.15c.4 0 .53-.24.53-.6v-1.9" />
    <path stroke="#FFFCFC" stroke-linecap="round" stroke-width=".4"
        d="m2 10.02 6.25 2.5M7 10.72c.78-.2 1-.01 1.14.38.02.05.25.08.3.05.27-.2.77-.22 1.06.3-.6-1.38 1.16-2.61 2.4-.93.03.04.12.02.14-.02.29-.47 1.84-.42 1.84.15v0c.62-2.51 3.12-1.87 3.12 0v0c-.2-.85 1.82-1.25 1.87.02 0 .03.03.05.06.05 1.02-.05 1.17.5 1.2.9 0 .05.07.07.1.03.38-.46.74.17 1.14.88M16.41 7.96c2.1-1.86-1.5-1.67.62-3.94M13.23 7.16c1.99-1.98-1.59-1.59.4-3.97.33-.4 0-1.03-.62-1.19M10.23 7.96c1.98-1.99-1.6-1.59.4-3.97" />
</svg>
